X: 15401
T: Glaun
R: jig
M: 6/8
K: Dmajor
GBd ded|FAd ded|ccA df/e/d|cAe edc|
GBd ded|FAD df/e/d|c2A dfa|f/e/dc ABA||
GBd ded|FAd ded|ccA dec-|cAe edc|
GBd ded|FAd ded|ccA ~d3|c/d/eA cea||
GBg ~f2d|AdF fed|~c2A dee|f/e/dc ABA|
GBg ~f2d|FDA Dde|~c2A dea|aed cAF||
GBg ~f2d|FAd fed|~c2A dee|f/e/dc ABA|
bgd Bda-|afd AdF-|Fcc cde|edc ABA:|

